X:1
T:NANA
T:  Falla Página 104
%%score 1 { 2 | 3 }
L:1/8
Q:1/4=82
M:2/4
K:C
V:1 treble-8 nm="Guitar" snm="Guit."
V:2 treble nm="Piano" snm="Pno."
V:3 bass 
V:1
 z4 | z4 | (3EEE (3:2:2E2 ^G | (3:2:5B2 c/4B/4A/4^G/4 A2 | z{/A} c3/2{/c}ed/ | %5
 B3/2(3A/4B/4A/4 ^G2 | (3z AA (3d2 d/d/ | (3:2:4B2 (3c/B/A/ =G2 | z{/E} F3/2{/F}AG/ | %9
 F3/2G/4F/4 E2 | z3/2 E/ (3:2:2E2 ^G | (3:2:4A2 (3B/A/^G/ A2 | z{/A} c3/2{/c}ed/ | %13
 (3:2:4B2 (3c/B/A/ ^G2 | (3z AA (3d2 c/d/ | (3:2:5e2 d/4c/4B/4A/4 =G2- | G{/E}F3/2{/F}AG/ | %17
 (3:2:5F2 G/4F/4E/4D/4 E2- | E4 | z4 | z4 | z4 | z4 | z4 | z4 | z4 | z4 | z4 | z4 | z4 | z4 | z4 |] %32
V:2
 BA ^GE | BA ^GE | BA ^GE | BA =GE | BA =GE | BA ^GE | BA =GE | BA =GE | BA =GE | BA ^GE | BA ^GE | %11
 cB AF | cB AF | dc BE | cB AD | BA GF | BA ^GE | BA ^GE | BA ^GE | B4 | z4 | z4 | z4 | z4 | z4 | %25
 z4 | z4 | z4 | z4 | z4 | z4 | z4 |] %32
V:3
 z/ E,,B,A,^G,/ | z/ E,,B,A,^G,/ | z/ E,,DCB,/ | z/ E,,CB,A,/ | z/ E,,CB,A,/ | z/ E,,CB,^G,/ | %6
 z/ E,,CB,A,/ | z/ E,,DCB,/ | z/ E,,CB,A,/ | z/ E,,B,A,^G,/ | z/ E,,B,A,^G,/ | z/ E,,CB,A,/ | %12
 z/ E,,CB,A,/ | z/ E,,DCB,/ | z/ E,,FDC/ | z/ E,,DCB,/ | z/ E,,CB,A,/ | z/ E,,B,A,^G,/ | %18
 z/ E,,B,A,^G,/ | z E,,, E,,2 | z4 | z4 | z4 | z4 | z4 | z4 | z4 | z4 | z4 | z4 | z4 | z4 |] %32

